X: 2912
T: Barrack Hill
R: slide
M: 12/8
K: Adorian
g2f|:e2A ABA e2d B2d|e2A B2A G2A B2d|
e2A ABA e2d B2d|d2B GAB A3 ABd:|
|:e2d efg a2f g2e|d2B g2B d2B d3|
e2d efg a2f g2e|1 d2B G2B A3 ABd:|2 d2B G2B A3 g2f||

